X:1
T:O'Donnell's March
R:march
H:Cf. Allistrum's March, #19
Z:id:hn-march-1
M:6/8
K:D
FEE FDD|FEd dBA|FEE FDD|FEd B2A:|
|:B2A B2F|B2A B2E|B2A BFF|B2A B2E:|
|:Bdd cee|Bdd dBA|Bdd cee|Bdd B2A:|
|:B2A B2F|B2A B2E|B2A B2F|B2A B2E:|
<end>
<start>
